Numix-GalliumOS/16/actions/view-media-playlist.svg

<svg xmlns="http://www.w3.org/2000/svg" viewBox="0 0 16 16">
 <path d="m 15 1 0 2 -9 0 0 -2" style="fill:#888"/>
 <path d="m 15 9 0 2 -14 0 0 -2" style="fill:#888"/>
 <path d="m 15 5 0 2 -9 0 0 -2" style="fill:#888"/>
 <path d="m 15 13 0 2 -14 0 0 -2 z" style="fill:#888"/>
 <path d="m 5 4 -4 -3 0 6" style="fill:#dc322f"/>
</svg>

<?xml version="1.0" encoding="UTF-8" standalone="no"?>
<svg
   xmlns:dc="http://purl.org/dc/elements/1.1/"
   xmlns:cc="http://creativecommons.org/ns#"
   xmlns:rdf="http://www.w3.org/1999/02/22-rdf-syntax-ns#"
   xmlns:svg="http://www.w3.org/2000/svg"
   xmlns="http://www.w3.org/2000/svg"
   xmlns:sodipodi="http://sodipodi.sourceforge.net/DTD/sodipodi-0.dtd"
   xmlns:inkscape="http://www.inkscape.org/namespaces/inkscape"
   width="16"
   height="16"
   viewBox="0 0 16 16"
   id="svg2"
   version="1.1"
   inkscape:version="0.91 r"
   sodipodi:docname="view-media-playlist.svg">
  <metadata
     id="metadata20">
    <rdf:RDF>
      <cc:Work
         rdf:about="">
        <dc:format>image/svg+xml</dc:format>
        <dc:type
           rdf:resource="http://purl.org/dc/dcmitype/StillImage" />
        <dc:title />
      </cc:Work>
    </rdf:RDF>
  </metadata>
  <defs
     id="defs18" />
  <sodipodi:namedview
     pagecolor="#ffffff"
     bordercolor="#666666"
     borderopacity="1"
     objecttolerance="10"
     gridtolerance="10"
     guidetolerance="10"
     inkscape:pageopacity="0"
     inkscape:pageshadow="2"
     inkscape:window-width="1547"
     inkscape:window-height="876"
     id="namedview16"
     showgrid="false"
     inkscape:zoom="17.31"
     inkscape:cx="-11.965103"
     inkscape:cy="8"
     inkscape:window-x="53"
     inkscape:window-y="24"
     inkscape:window-maximized="1"
     inkscape:current-layer="svg2" />
  <path
     style="fill:#888888"
     inkscape:connector-curvature="0"
     id="path6"
     d="M 15,1 15,3 6,3 6,1 Z" />
  <path
     style="fill:#888888"
     inkscape:connector-curvature="0"
     id="path8"
     d="M 15,9 15,11 1,11 1,9 Z" />
  <path
     style="fill:#888888"
     inkscape:connector-curvature="0"
     id="path10"
     d="M 15,5 15,7 6,7 6,5 Z" />
  <path
     style="fill:#888888"
     inkscape:connector-curvature="0"
     id="path12"
     d="m 15,13 0,2 -14,0 0,-2 z" />
  <path
     style="fill:#dc322f"
     d="M 5,4 1,1 1,7 Z"
     id="path14"
     inkscape:connector-curvature="0" />
</svg>
